images/icon-default-card-bg.svg

<svg height="100" viewBox="0 0 220 100" width="220" xmlns="http://www.w3.org/2000/svg"><path d="m109 57c-9.9411255 0-18-8.0588745-18-18s8.0588745-18 18-18c9.941125 0 18 8.0588745 18 18s-8.058875 18-18 18zm-2.216-14.208h3.04v-1.312c0-3.84 5.664-4.384 5.664-9.664 0-3.552-3.072-5.856-6.688-5.856-3.488 0-5.6 2.048-5.6 2.048l1.728 2.208s1.632-1.344 3.648-1.344c2.112 0 3.648 1.376 3.648 3.168 0 3.68-5.44 4.384-5.44 9.248zm-.064 6.208h3.168v-3.104h-3.168z" fill="#fff" fill-rule="evenodd"/></svg>

<?xml version="1.0" encoding="UTF-8" standalone="no"?>
<svg width="220px" height="100px" viewBox="0 0 220 100" version="1.1" xmlns="http://www.w3.org/2000/svg" xmlns:xlink="http://www.w3.org/1999/xlink">
    <!-- Generator: Sketch 44.1 (41455) - http://www.bohemiancoding.com/sketch -->
    <title>icon-default-card-bg</title>
    <desc>Created with Sketch.</desc>
    <defs></defs>
    <g id="Page-1" stroke="none" stroke-width="1" fill="none" fill-rule="evenodd">
        <g id="icon-default-card-bg" fill="#FFFFFF">
            <path d="M109,57 C99.0588745,57 91,48.9411255 91,39 C91,29.0588745 99.0588745,21 109,21 C118.941125,21 127,29.0588745 127,39 C127,48.9411255 118.941125,57 109,57 Z M106.784,42.792 L109.824,42.792 L109.824,41.48 C109.824,37.64 115.488,37.096 115.488,31.816 C115.488,28.264 112.416,25.96 108.8,25.96 C105.312,25.96 103.2,28.008 103.2,28.008 L104.928,30.216 C104.928,30.216 106.56,28.872 108.576,28.872 C110.688,28.872 112.224,30.248 112.224,32.04 C112.224,35.72 106.784,36.424 106.784,41.288 L106.784,42.792 Z M106.72,49 L109.888,49 L109.888,45.896 L106.72,45.896 L106.72,49 Z" id="Combined-Shape"></path>
        </g>
    </g>
</svg>
